src/images/logo-facebook.svg

<svg fill="none" height="23" viewBox="0 0 13 23" width="13" xmlns="http://www.w3.org/2000/svg"><path d="m10.3431 4.25531h1.85v-4.02384l-2.78729-.004908c-3.94532 0-5.81494 2.345598-5.81494 5.687348v3.16509h-3.09148v3.8226h3.08658v9.721h4.63232v-9.716h3.08661l.8783-3.82269h-3.96491v-2.61059c.0049-1.06975.58885-2.21801 2.12481-2.21801z" fill="#fff"/></svg>

<svg width="13" height="23" viewBox="0 0 13 23" fill="none" xmlns="http://www.w3.org/2000/svg">
<path d="M10.3431 4.25531H12.1931V0.23147L9.40581 0.226562C5.46049 0.226562 3.59087 2.57216 3.59087 5.91391V9.079H0.49939V12.9016H3.58597V22.6226H8.21829V12.9066H11.3049L12.1832 9.08391H8.21829V6.47332C8.22319 5.40357 8.80714 4.25531 10.3431 4.25531Z" fill="white"/>
</svg>
